X:76
T: EI DU LIEBER AUGUSTIN
N: F0181
O: Europa, Mitteleuropa, Deutschland
R: Scherz - Lied, Tanz - Reim
M: 3/4
L: 1/8
K: G
 | d3edc | B2G2G2
A2D2D2 | B2G2G2
d3edc | B2G2G2
A2D2D2 | G2z4
d3edc | B2G2G2
A2D2D2 | B2G2G2
d3edc | B2G2G2
A2D2D2 | G2z4
A2D2D2 | GBdBG2
A3DDD | GBdBG2
d3edc | B2G2G2
A2D2D2 | G2z4
A2D2D2 | GBdBG2
A3DDD | GBdBG2
d3edc | B2G2G2
A2D2D2 | G2z4

